markets/ATOM.svg

<svg width="42" height="42" viewBox="0 0 42 42" fill="none" xmlns="http://www.w3.org/2000/svg">
<g clip-path="url(#clip0_7277_57300)">
<path d="M21 42C32.598 42 42 32.598 42 21C42 9.40202 32.598 0 21 0C9.40202 0 0 9.40202 0 21C0 32.598 9.40202 42 21 42Z" fill="#2E3148"/>
<path d="M21 33.1851C27.7297 33.1851 33.1852 27.7296 33.1852 20.9999C33.1852 14.2702 27.7297 8.8147 21 8.8147C14.2703 8.8147 8.81482 14.2702 8.81482 20.9999C8.81482 27.7296 14.2703 33.1851 21 33.1851Z" fill="#1B1E36"/>
<path d="M21.0431 2.6792C18.7763 2.6792 16.9382 10.9011 16.9382 21.0434C16.9382 31.1858 18.7763 39.4077 21.0431 39.4077C23.31 39.4077 25.1481 31.1858 25.1481 21.0434C25.1481 10.9011 23.31 2.6792 21.0431 2.6792ZM21.3266 38.3713C21.0673 38.7171 20.8081 38.4577 20.8081 38.4577C19.7642 37.2481 19.2422 35.0009 19.2422 35.0009C17.4162 29.1244 17.8508 16.5071 17.8508 16.5071C18.709 6.49028 20.27 4.124 20.8012 3.59866C20.8555 3.54505 20.9269 3.51228 21.0029 3.50614C21.0789 3.49999 21.1547 3.52086 21.2169 3.56506C21.9876 4.11123 22.6341 6.39536 22.6341 6.39536C24.5431 13.4818 24.3702 20.1361 24.3702 20.1361C24.5431 25.9262 23.4136 32.4076 23.4136 32.4076C22.5442 37.3334 21.3266 38.3713 21.3266 38.3713Z" fill="#6F7390"/>
<path d="M36.9721 11.9042C35.8435 9.93726 27.7978 12.4347 18.9961 17.4818C10.1944 22.5289 3.9858 28.2152 5.11359 30.1813C6.24137 32.1474 14.2879 29.6507 23.0896 24.6037C31.8913 19.5566 38.0999 13.8703 36.9721 11.9042ZM6.15485 29.9114C5.72276 29.857 5.82036 29.5019 5.82036 29.5019C6.3504 27.9947 8.03712 26.4236 8.03712 26.4236C12.2275 21.9152 23.3888 16.0135 23.3888 16.0135C32.5035 11.7728 35.3346 11.9517 36.0528 12.1495C36.1265 12.1701 36.1906 12.2161 36.2336 12.2793C36.2767 12.3426 36.2959 12.4191 36.288 12.4952C36.2017 13.436 34.5379 15.1328 34.5379 15.1328C29.3447 20.3171 23.4864 23.4792 23.4864 23.4792C18.5501 26.5116 12.366 28.7559 12.366 28.7559C7.66047 30.4516 6.15502 29.9114 6.15502 29.9114H6.15485Z" fill="#6F7390"/>
<path d="M36.9323 30.2469C38.0697 28.2852 31.8767 22.5728 23.1059 17.4878C14.3351 12.4028 6.29046 9.87436 5.15411 11.8395C4.01775 13.8046 10.2097 19.5135 18.9855 24.5986C27.7614 29.6836 35.796 32.2122 36.9323 30.2469ZM5.90775 12.5975C5.73975 12.1991 6.0944 12.1032 6.0944 12.1032C7.66453 11.8067 9.87003 12.4824 9.87003 12.4824C15.8702 13.8487 26.5692 20.5506 26.5692 20.5506C34.8068 26.3148 36.0701 28.8538 36.2595 29.5746C36.2787 29.6485 36.2713 29.7268 36.2384 29.7958C36.2055 29.8647 36.1493 29.9198 36.0797 29.9514C35.2207 30.3447 32.9201 29.7587 32.9201 29.7587C25.8294 27.8574 20.1585 24.3739 20.1585 24.3739C15.0633 21.6258 10.0249 17.3972 10.0249 17.3972C6.19655 14.1738 5.90893 12.6018 5.90893 12.6018L5.90775 12.5975Z" fill="#6F7390"/>
<path d="M21 23.1606C22.1932 23.1606 23.1604 22.1933 23.1604 21.0001C23.1604 19.8069 22.1932 18.8396 21 18.8396C19.8068 18.8396 18.8395 19.8069 18.8395 21.0001C18.8395 22.1933 19.8068 23.1606 21 23.1606Z" fill="#B7B9C8"/>
<path d="M29.858 14C30.55 14 31.1111 13.4197 31.1111 12.7038C31.1111 11.9878 30.55 11.4075 29.858 11.4075C29.1659 11.4075 28.6049 11.9878 28.6049 12.7038C28.6049 13.4197 29.1659 14 29.858 14Z" fill="#B7B9C8"/>
<path d="M9.2901 18.4075C9.98217 18.4075 10.5432 17.8272 10.5432 17.1112C10.5432 16.3953 9.98217 15.8149 9.2901 15.8149C8.59802 15.8149 8.03699 16.3953 8.03699 17.1112C8.03699 17.8272 8.59802 18.4075 9.2901 18.4075Z" fill="#B7B9C8"/>
<path d="M18.4506 34.3086C19.1427 34.3086 19.7037 33.7283 19.7037 33.0124C19.7037 32.2964 19.1427 31.7161 18.4506 31.7161C17.7585 31.7161 17.1975 32.2964 17.1975 33.0124C17.1975 33.7283 17.7585 34.3086 18.4506 34.3086Z" fill="#B7B9C8"/>
</g>
<defs>
<clipPath id="clip0_7277_57300">
<rect width="42" height="42" fill="white"/>
</clipPath>
</defs>
</svg>

<svg xmlns="http://www.w3.org/2000/svg" width="42" height="42" fill="none"><g clip-path="url(#a)"><path fill="#2E3148" d="M21 42c11.598 0 21-9.402 21-21S32.598 0 21 0 0 9.402 0 21s9.402 21 21 21Z"/><path fill="#1B1E36" d="M21 33.185c6.73 0 12.185-5.455 12.185-12.185S27.73 8.815 21 8.815 8.815 14.27 8.815 21 14.27 33.185 21 33.185Z"/><path fill="#6F7390" d="M21.043 2.68c-2.267 0-4.105 8.221-4.105 18.363 0 10.143 1.838 18.365 4.105 18.365 2.267 0 4.105-8.222 4.105-18.365 0-10.142-1.838-18.364-4.105-18.364Zm.284 35.691c-.26.346-.519.087-.519.087C19.764 37.248 19.242 35 19.242 35c-1.826-5.877-1.391-18.494-1.391-18.494C18.709 6.49 20.27 4.124 20.8 3.6a.324.324 0 0 1 .416-.034c.77.546 1.417 2.83 1.417 2.83 1.91 7.087 1.736 13.741 1.736 13.741.173 5.79-.956 12.272-.956 12.272-.87 4.925-2.087 5.963-2.087 5.963Z"/><path fill="#6F7390" d="M36.972 11.904c-1.129-1.967-9.174.53-17.976 5.578-8.802 5.047-15.01 10.733-13.882 12.7 1.127 1.965 9.174-.531 17.976-5.578 8.801-5.047 15.01-10.734 13.882-12.7ZM6.155 29.911c-.432-.054-.335-.41-.335-.41.53-1.506 2.217-3.077 2.217-3.077 4.19-4.509 15.352-10.41 15.352-10.41 9.115-4.241 11.946-4.062 12.664-3.864a.324.324 0 0 1 .235.345c-.086.941-1.75 2.638-1.75 2.638-5.193 5.184-11.052 8.346-11.052 8.346-4.936 3.033-11.12 5.277-11.12 5.277-4.706 1.696-6.211 1.155-6.211 1.155Z"/><path fill="#6F7390" d="M36.932 30.247c1.138-1.962-5.055-7.674-13.826-12.76-8.77-5.084-16.816-7.613-17.952-5.647-1.136 1.965 5.056 7.674 13.831 12.759 8.776 5.085 16.811 7.613 17.947 5.648ZM5.908 12.597c-.168-.398.186-.494.186-.494 1.57-.296 3.776.38 3.776.38 6 1.366 16.7 8.068 16.7 8.068 8.237 5.764 9.5 8.303 9.69 9.024a.324.324 0 0 1-.18.376c-.86.394-3.16-.192-3.16-.192-7.09-1.902-12.762-5.385-12.762-5.385-5.095-2.748-10.133-6.977-10.133-6.977-3.828-3.223-4.116-4.795-4.116-4.795l-.001-.005Z"/><path fill="#B7B9C8" d="M21 23.16a2.16 2.16 0 1 0 0-4.32 2.16 2.16 0 0 0 0 4.32ZM29.858 14c.692 0 1.253-.58 1.253-1.296 0-.716-.561-1.296-1.253-1.296-.692 0-1.253.58-1.253 1.296 0 .716.56 1.296 1.253 1.296ZM9.29 18.407c.692 0 1.253-.58 1.253-1.296 0-.716-.56-1.296-1.253-1.296-.692 0-1.253.58-1.253 1.296 0 .716.561 1.296 1.253 1.296ZM18.45 34.309c.693 0 1.254-.58 1.254-1.297 0-.716-.561-1.296-1.253-1.296-.692 0-1.253.58-1.253 1.296 0 .716.56 1.297 1.253 1.297Z"/></g><defs><clipPath id="a"><path fill="#fff" d="M0 0h42v42H0z"/></clipPath></defs></svg>
